build/img/landings/express-smm/features-3.svg

<svg width="490" height="690" fill="none" xmlns="http://www.w3.org/2000/svg"><g clip-path="url(#clip0)"><path d="M291.549 325.765l94.992 128.039a14.081 14.081 0 0010.939 5.694l43.811 1.197a14.107 14.107 0 0110.939 5.694l44.704 60.256a14.115 14.115 0 012.627 10.473 14.104 14.104 0 01-5.547 9.262l-128.691 95.525a14.106 14.106 0 01-10.469 2.626 14.092 14.092 0 01-9.261-5.548L102.492 311.309a14.108 14.108 0 012.919-19.734l128.697-95.522a14.098 14.098 0 0119.729 2.918l44.7 60.257a14.109 14.109 0 012.281 12.126l-11.553 42.268a14.112 14.112 0 002.284 12.143z" fill="#FF5050" stroke="#000" stroke-width="7" stroke-linecap="round" stroke-linejoin="round"/><path d="M238.16 258.19a5.955 5.955 0 004.908-6.845 5.956 5.956 0 10-11.753 1.935 5.957 5.957 0 006.845 4.91zm3.089-20.886a5.957 5.957 0 004.909-6.846 5.956 5.956 0 10-11.753 1.935 5.958 5.958 0 006.844 4.911zm-6.179 41.773a5.956 5.956 0 004.908-6.846 5.955 5.955 0 10-11.752 1.935 5.956 5.956 0 006.844 4.911zm-17.789-23.98a5.955 5.955 0 004.908-6.845 5.956 5.956 0 10-11.752 1.935 5.955 5.955 0 006.844 4.91zm41.761 6.186a5.956 5.956 0 004.909-6.846 5.956 5.956 0 10-11.753 1.935 5.957 5.957 0 006.844 4.911z" fill="#FF5050" stroke="#000" stroke-width="7" stroke-linecap="round" stroke-linejoin="round"/><path d="M215.46 382.242l94.992 128.04a14.093 14.093 0 0010.94 5.698l43.81 1.192a14.108 14.108 0 0110.94 5.698l44.704 60.257a14.106 14.106 0 01-2.92 19.73l-52.601 39.048a14.102 14.102 0 01-19.73-2.923L102.493 311.309a14.116 14.116 0 012.92-19.735l52.606-39.044a14.097 14.097 0 0119.725 2.924l44.705 60.256a14.097 14.097 0 012.28 12.122l-11.548 42.297a14.099 14.099 0 002.279 12.113z" fill="#2243E5" stroke="#000" stroke-width="7" stroke-linecap="round" stroke-linejoin="round"/><path d="M234.333 315.433l55.744-41.377m-69.246 96.586l59.528-44.182m43.282 182.756l59.527-44.185m-3.773 45.926l55.744-41.373" stroke="#000" stroke-width="7" stroke-linecap="round" stroke-linejoin="round"/><path d="M120.295 228.463l-19.647 14.584 25.097 33.826 19.647-14.583-25.097-33.827z" fill="#2243E5" stroke="#000" stroke-width="7" stroke-linecap="round" stroke-linejoin="round"/><path d="M110.378 235.828l-83.491-112.54" stroke="#000" stroke-width="7" stroke-linecap="round" stroke-linejoin="round"/><path d="M281.089 421.261l-6.898 5.12a4.424 4.424 0 00-.915 6.188l5.769 7.776a4.42 4.42 0 006.186.916l6.898-5.12a4.423 4.423 0 00.915-6.187l-5.769-7.776a4.422 4.422 0 00-6.186-.917zm18.5-13.73l-6.898 5.119a4.424 4.424 0 00-.915 6.188l5.769 7.776a4.422 4.422 0 006.186.917l6.898-5.12a4.424 4.424 0 00.915-6.188l-5.769-7.776a4.42 4.42 0 00-6.186-.916zm18.496-13.731l-6.898 5.12a4.424 4.424 0 00-.915 6.188l5.769 7.776a4.42 4.42 0 006.186.916l6.898-5.12a4.422 4.422 0 00.915-6.187l-5.769-7.776a4.422 4.422 0 00-6.186-.917z" fill="#FFB3B3" stroke="#000" stroke-width="7" stroke-linecap="round" stroke-linejoin="round"/><path d="M297.905 443.929l-6.897 5.12a4.425 4.425 0 00-.916 6.188l5.77 7.776a4.42 4.42 0 006.186.916l6.897-5.12a4.422 4.422 0 00.915-6.187l-5.769-7.777a4.421 4.421 0 00-6.186-.916z" fill="#FF5050" stroke="#000" stroke-width="7" stroke-linecap="round" stroke-linejoin="round"/><path d="M316.405 430.194l-6.897 5.12a4.423 4.423 0 00-.916 6.187l5.77 7.776a4.422 4.422 0 006.186.917l6.897-5.12a4.424 4.424 0 00.915-6.188l-5.769-7.776a4.42 4.42 0 00-6.186-.916zm18.5-13.727l-6.897 5.12a4.425 4.425 0 00-.916 6.188l5.77 7.776a4.42 4.42 0 006.186.916l6.897-5.12a4.422 4.422 0 00.915-6.187l-5.769-7.776a4.422 4.422 0 00-6.186-.917zm-20.308 49.954l-6.898 5.12a4.424 4.424 0 00-.915 6.188l5.769 7.776a4.42 4.42 0 006.186.916l6.897-5.119a4.425 4.425 0 00.916-6.188l-5.769-7.776a4.422 4.422 0 00-6.186-.917zm18.496-13.73l-6.898 5.12a4.422 4.422 0 00-.915 6.187l5.769 7.777a4.422 4.422 0 006.186.916l6.897-5.12a4.425 4.425 0 00.916-6.188l-5.769-7.776a4.421 4.421 0 00-6.186-.916z" fill="#FFB3B3" stroke="#000" stroke-width="7" stroke-linecap="round" stroke-linejoin="round"/><path d="M449.853 499.305l-39.959 29.661a3.411 3.411 0 00-.706 4.771l1.019 1.373a3.409 3.409 0 004.77.706l39.958-29.66a3.41 3.41 0 00.706-4.772l-1.018-1.372a3.41 3.41 0 00-4.77-.707zm10.867 14.643l-39.959 29.66a3.411 3.411 0 00-.706 4.771l1.019 1.373a3.41 3.41 0 004.77.707l39.959-29.661a3.411 3.411 0 00.706-4.771l-1.019-1.373a3.41 3.41 0 00-4.77-.706zm-109.131-74.986l-6.898 5.12a4.424 4.424 0 00-.915 6.188l5.769 7.776a4.42 4.42 0 006.186.916l6.898-5.119a4.424 4.424 0 00.915-6.188l-5.769-7.776a4.422 4.422 0 00-6.186-.917z" fill="#FF5050" stroke="#000" stroke-width="7" stroke-linecap="round" stroke-linejoin="round"/><path d="M241.649 385.607l111.653-279.922 87.236 139.445 77.542 66.206-257.358 98.724" fill="#FFD400"/><path d="M241.649 385.607l111.653-279.922 87.236 139.445 77.542 66.206-257.358 98.724" stroke="#000" stroke-width="7" stroke-linecap="round" stroke-linejoin="round"/><path d="M285.792 351.504l-41.825 31.045a7.358 7.358 0 00-1.522 10.291l10.747 14.486a7.353 7.353 0 0010.288 1.523l41.824-31.045a7.356 7.356 0 001.522-10.29l-10.747-14.486a7.353 7.353 0 00-10.287-1.524z" fill="#fff" stroke="#000" stroke-width="7" stroke-linecap="round" stroke-linejoin="round"/><path d="M592.355 179.397s27.072 68.179 13.653 89.185c-11.705 18.329-42.396 17.971-56.168 17.622-33.895-.857-34.97-1.747-31.747 25.116l-164.261 63.019s-10.114-31.757-2.033-71.102a97.682 97.682 0 0161.849-71.873c-19.738-2.055-35.455-13.35-44.894-32.245a17.515 17.515 0 01-3.362.895 19.22 19.22 0 01-10.436-36.737c-6.076-15.135-15.039-51.048 8.493-70.027 21.31-17.205 47.608-12.454 47.608-12.454s12.481-23.113 33.88-25.645c22.961-2.75 18.847 13.721 18.847 13.721s13.891-3.433 21.758 11.22c7.068 13.258-4.314 23.599-4.314 23.599s5.218 27.756 3.514 37.801a19.213 19.213 0 014.67 38.104c-1.16.196-2.338.276-3.514.237-2.876 20.998-16.433 37.117-35.584 45.535 3.914.11 7.818.461 11.69 1.052l.073-.012c49.161 1.862 88.099 15.976 101.234 4.009 11.596-10.492-27.259-96.075-16.425-101.142 8.659-4.055 11.164 18.687 20.014 20.322 8.849 1.635 28.604-23.403 34.407-21.955 5.648 1.398-12.877 23-13.942 24.192 1.277-.818 26.383-17.2 30.847-12.097 4.595 5.196-25.518 24.535-25.518 24.535s27.246-13.336 30.328-7.321c3.082 6.014-30.667 22.446-30.667 22.446z" fill="#FFD400" stroke="#000" stroke-width="7" stroke-linecap="round" stroke-linejoin="round"/><path d="M411.905 153.235c.892 5.42-3.386 6.817-8.804 7.709-5.418.892-9.918.94-10.81-4.48a9.94 9.94 0 1119.614-3.229z" fill="#FFD400" stroke="#000" stroke-width="7" stroke-linecap="round" stroke-linejoin="round"/><path d="M387.526 141.482a9.952 9.952 0 0110.625-8.491 9.95 9.95 0 014.674 1.601" fill="#FFD400"/><path d="M387.526 141.482a9.952 9.952 0 0110.625-8.491 9.95 9.95 0 014.674 1.601" stroke="#000" stroke-width="7" stroke-linecap="round" stroke-linejoin="round"/><path d="M450.939 130.749a10.175 10.175 0 00-8.042-5.407 10.17 10.17 0 00-8.92 3.784" fill="#FFD400"/><path d="M450.939 130.749a10.175 10.175 0 00-8.042-5.407 10.17 10.17 0 00-8.92 3.784" stroke="#000" stroke-width="7" stroke-linecap="round" stroke-linejoin="round"/><path d="M449.803 146.996c.893 5.419-3.39 6.818-8.803 7.709-5.414.891-9.916.957-10.811-4.48a9.944 9.944 0 018.192-11.425 9.94 9.94 0 0111.422 8.196z" fill="#FFD400" stroke="#000" stroke-width="7" stroke-linecap="round" stroke-linejoin="round"/><path d="M420.974 157.513l14.572 13.648-13.712 2.257" fill="#FFD400"/><path d="M420.974 157.513l14.572 13.648-13.712 2.257" stroke="#000" stroke-width="7" stroke-linecap="round" stroke-linejoin="round"/><path d="M412.812 182.865c4.539 2.834 11.662-.245 13.425 5.258 1.982 6.182-11.251 13.372-21.095 6.263-9.627-6.949-7.636-16.514-2.134-17.841 5.502-1.328 5.562 3.673 9.804 6.32z" fill="#FFD400" stroke="#000" stroke-width="7" stroke-linecap="round" stroke-linejoin="round"/><path d="M379.814 385.398l117.69-39.931m-88.654 48.234l63.047-15.418M291.999 211.601l18.28-67.903" stroke="#000" stroke-width="7" stroke-linecap="round" stroke-linejoin="round"/></g><defs><clipPath id="clip0"><path fill="#fff" transform="rotate(-9.349 602.894 49.297)" d="M0 0h606.924v598.54H0z"/></clipPath></defs></svg>

<svg width="490" height="690" viewBox="0 0 490 690" fill="none" xmlns="http://www.w3.org/2000/svg">
<g clip-path="url(#clip0)">
<path d="M291.549 325.765L386.541 453.804C387.813 455.521 389.459 456.925 391.355 457.912C393.25 458.898 395.344 459.441 397.48 459.498L441.291 460.695C443.426 460.753 445.52 461.296 447.415 462.283C449.31 463.269 450.956 464.673 452.23 466.389L496.934 526.645C498.038 528.133 498.838 529.823 499.289 531.62C499.74 533.417 499.832 535.285 499.561 537.118C499.29 538.95 498.66 540.712 497.709 542.301C496.757 543.89 495.502 545.276 494.014 546.38L365.323 641.905C363.836 643.009 362.146 643.809 360.35 644.26C358.553 644.711 356.686 644.803 354.854 644.531C353.021 644.26 351.261 643.63 349.672 642.678C348.083 641.726 346.697 640.47 345.593 638.983L102.492 311.309C100.263 308.305 99.3193 304.538 99.8669 300.837C100.414 297.136 102.409 293.805 105.411 291.575L234.108 196.053C237.111 193.823 240.876 192.878 244.576 193.425C248.276 193.972 251.607 195.967 253.837 198.971L298.537 259.228C299.811 260.945 300.678 262.928 301.073 265.029C301.468 267.13 301.381 269.293 300.818 271.354L289.265 313.622C288.7 315.687 288.611 317.853 289.007 319.957C289.403 322.061 290.272 324.047 291.549 325.765Z" fill="#FF5050" stroke="black" stroke-width="7" stroke-linecap="round" stroke-linejoin="round"/>
<path d="M238.16 258.19C241.405 257.656 243.603 254.591 243.068 251.345C242.534 248.098 239.47 245.9 236.224 246.434C232.979 246.968 230.781 250.033 231.315 253.28C231.85 256.526 234.914 258.725 238.16 258.19Z" fill="#FF5050" stroke="black" stroke-width="7" stroke-linecap="round" stroke-linejoin="round"/>
<path d="M241.249 237.304C244.495 236.769 246.693 233.704 246.158 230.458C245.624 227.211 242.559 225.013 239.314 225.547C236.068 226.081 233.871 229.146 234.405 232.393C234.94 235.639 238.004 237.838 241.249 237.304Z" fill="#FF5050" stroke="black" stroke-width="7" stroke-linecap="round" stroke-linejoin="round"/>
<path d="M235.07 279.077C238.315 278.543 240.513 275.478 239.978 272.231C239.444 268.985 236.38 266.786 233.134 267.321C229.889 267.855 227.691 270.92 228.226 274.166C228.76 277.413 231.824 279.611 235.07 279.077Z" fill="#FF5050" stroke="black" stroke-width="7" stroke-linecap="round" stroke-linejoin="round"/>
<path d="M217.281 255.097C220.526 254.563 222.724 251.498 222.189 248.252C221.655 245.005 218.591 242.807 215.345 243.341C212.1 243.875 209.902 246.94 210.437 250.187C210.971 253.433 214.035 255.632 217.281 255.097Z" fill="#FF5050" stroke="black" stroke-width="7" stroke-linecap="round" stroke-linejoin="round"/>
<path d="M259.042 261.283C262.288 260.749 264.486 257.684 263.951 254.437C263.417 251.191 260.352 248.992 257.107 249.527C253.861 250.061 251.664 253.126 252.198 256.372C252.733 259.619 255.797 261.817 259.042 261.283Z" fill="#FF5050" stroke="black" stroke-width="7" stroke-linecap="round" stroke-linejoin="round"/>
<path d="M215.46 382.242L310.452 510.282C311.724 511.999 313.371 513.404 315.266 514.391C317.161 515.378 319.256 515.921 321.392 515.98L365.202 517.172C367.338 517.231 369.432 517.774 371.328 518.761C373.223 519.748 374.869 521.154 376.142 522.87L420.846 583.127C423.074 586.131 424.018 589.897 423.47 593.597C422.923 597.297 420.928 600.628 417.926 602.857L365.325 641.905C363.838 643.009 362.148 643.809 360.351 644.26C358.555 644.71 356.687 644.802 354.855 644.531C353.023 644.26 351.262 643.63 349.673 642.678C348.084 641.726 346.699 640.47 345.595 638.982L102.493 311.309C100.265 308.304 99.3209 304.537 99.8685 300.836C100.416 297.136 102.41 293.804 105.413 291.574L158.019 252.53C161.022 250.302 164.787 249.358 168.486 249.907C172.186 250.455 175.516 252.45 177.744 255.454L222.449 315.71C223.723 317.426 224.59 319.408 224.985 321.508C225.38 323.608 225.292 325.771 224.729 327.832L213.181 370.129C212.619 372.189 212.532 374.35 212.927 376.448C213.322 378.546 214.188 380.528 215.46 382.242Z" fill="#2243E5" stroke="black" stroke-width="7" stroke-linecap="round" stroke-linejoin="round"/>
<path d="M234.333 315.433L290.077 274.056" stroke="black" stroke-width="7" stroke-linecap="round" stroke-linejoin="round"/>
<path d="M220.831 370.642L280.359 326.46" stroke="black" stroke-width="7" stroke-linecap="round" stroke-linejoin="round"/>
<path d="M323.641 509.216L383.168 465.031" stroke="black" stroke-width="7" stroke-linecap="round" stroke-linejoin="round"/>
<path d="M379.395 510.957L435.139 469.584" stroke="black" stroke-width="7" stroke-linecap="round" stroke-linejoin="round"/>
<path d="M120.295 228.463L100.648 243.047L125.745 276.873L145.392 262.29L120.295 228.463Z" fill="#2243E5" stroke="black" stroke-width="7" stroke-linecap="round" stroke-linejoin="round"/>
<path d="M110.378 235.828L26.8867 123.288" stroke="black" stroke-width="7" stroke-linecap="round" stroke-linejoin="round"/>
<path d="M281.089 421.261L274.191 426.381C272.23 427.837 271.82 430.607 273.276 432.569L279.045 440.345C280.501 442.307 283.27 442.717 285.231 441.261L292.129 436.141C294.09 434.686 294.499 431.915 293.044 429.954L287.275 422.178C285.819 420.216 283.05 419.806 281.089 421.261Z" fill="#FFB3B3" stroke="black" stroke-width="7" stroke-linecap="round" stroke-linejoin="round"/>
<path d="M299.589 407.531L292.691 412.65C290.73 414.106 290.32 416.876 291.776 418.838L297.545 426.614C299.001 428.576 301.77 428.986 303.731 427.531L310.629 422.411C312.59 420.955 312.999 418.185 311.544 416.223L305.775 408.447C304.319 406.485 301.55 406.075 299.589 407.531Z" fill="#FFB3B3" stroke="black" stroke-width="7" stroke-linecap="round" stroke-linejoin="round"/>
<path d="M318.085 393.8L311.187 398.92C309.226 400.376 308.817 403.146 310.272 405.108L316.041 412.884C317.497 414.846 320.266 415.256 322.227 413.8L329.125 408.68C331.086 407.225 331.496 404.455 330.04 402.493L324.271 394.717C322.815 392.755 320.046 392.345 318.085 393.8Z" fill="#FFB3B3" stroke="black" stroke-width="7" stroke-linecap="round" stroke-linejoin="round"/>
<path d="M297.905 443.929L291.008 449.049C289.047 450.505 288.637 453.275 290.092 455.237L295.862 463.013C297.317 464.975 300.087 465.385 302.048 463.929L308.945 458.809C310.906 457.354 311.316 454.583 309.86 452.622L304.091 444.845C302.636 442.884 299.866 442.473 297.905 443.929Z" fill="#FF5050" stroke="black" stroke-width="7" stroke-linecap="round" stroke-linejoin="round"/>
<path d="M316.405 430.194L309.508 435.314C307.547 436.769 307.137 439.539 308.592 441.501L314.362 449.277C315.817 451.239 318.587 451.649 320.548 450.194L327.445 445.074C329.406 443.618 329.816 440.848 328.36 438.886L322.591 431.11C321.136 429.148 318.366 428.738 316.405 430.194Z" fill="#FFB3B3" stroke="black" stroke-width="7" stroke-linecap="round" stroke-linejoin="round"/>
<path d="M334.905 416.467L328.008 421.587C326.047 423.043 325.637 425.813 327.092 427.775L332.862 435.551C334.317 437.513 337.087 437.923 339.048 436.467L345.945 431.347C347.906 429.892 348.316 427.122 346.86 425.16L341.091 417.384C339.636 415.422 336.866 415.012 334.905 416.467Z" fill="#FFB3B3" stroke="black" stroke-width="7" stroke-linecap="round" stroke-linejoin="round"/>
<path d="M314.597 466.421L307.699 471.541C305.738 472.997 305.328 475.767 306.784 477.729L312.553 485.505C314.008 487.467 316.778 487.877 318.739 486.421L325.636 481.302C327.597 479.846 328.007 477.076 326.552 475.114L320.783 467.338C319.327 465.376 316.558 464.966 314.597 466.421Z" fill="#FFB3B3" stroke="black" stroke-width="7" stroke-linecap="round" stroke-linejoin="round"/>
<path d="M333.093 452.691L326.195 457.811C324.234 459.266 323.824 462.037 325.28 463.998L331.049 471.775C332.505 473.736 335.274 474.146 337.235 472.691L344.132 467.571C346.093 466.115 346.503 463.345 345.048 461.383L339.279 453.607C337.823 451.646 335.054 451.235 333.093 452.691Z" fill="#FFB3B3" stroke="black" stroke-width="7" stroke-linecap="round" stroke-linejoin="round"/>
<path d="M449.853 499.305L409.894 528.966C408.382 530.088 408.066 532.224 409.188 533.737L410.207 535.11C411.329 536.622 413.464 536.939 414.977 535.816L454.935 506.156C456.448 505.033 456.764 502.897 455.641 501.384L454.623 500.012C453.501 498.499 451.365 498.183 449.853 499.305Z" fill="#FF5050" stroke="black" stroke-width="7" stroke-linecap="round" stroke-linejoin="round"/>
<path d="M460.72 513.948L420.761 543.608C419.249 544.731 418.933 546.867 420.055 548.379L421.074 549.752C422.196 551.265 424.332 551.581 425.844 550.459L465.803 520.798C467.315 519.676 467.631 517.54 466.509 516.027L465.49 514.654C464.368 513.142 462.232 512.825 460.72 513.948Z" fill="#FF5050" stroke="black" stroke-width="7" stroke-linecap="round" stroke-linejoin="round"/>
<path d="M351.589 438.962L344.691 444.082C342.73 445.538 342.32 448.308 343.776 450.27L349.545 458.046C351.001 460.008 353.77 460.418 355.731 458.962L362.629 453.843C364.59 452.387 364.999 449.617 363.544 447.655L357.775 439.879C356.319 437.917 353.55 437.507 351.589 438.962Z" fill="#FF5050" stroke="black" stroke-width="7" stroke-linecap="round" stroke-linejoin="round"/>
<path d="M241.649 385.607L353.302 105.685L440.538 245.13L518.08 311.336L260.722 410.06" fill="#FFD400"/>
<path d="M241.649 385.607L353.302 105.685L440.538 245.13L518.08 311.336L260.722 410.06" stroke="black" stroke-width="7" stroke-linecap="round" stroke-linejoin="round"/>
<path d="M285.792 351.504L243.967 382.549C240.706 384.97 240.025 389.577 242.445 392.84L253.192 407.326C255.613 410.588 260.219 411.27 263.48 408.849L305.304 377.804C308.565 375.383 309.247 370.776 306.826 367.514L296.079 353.028C293.659 349.766 289.053 349.084 285.792 351.504Z" fill="white" stroke="black" stroke-width="7" stroke-linecap="round" stroke-linejoin="round"/>
<path d="M592.355 179.397C592.355 179.397 619.427 247.576 606.008 268.582C594.303 286.911 563.612 286.553 549.84 286.204C515.945 285.347 514.87 284.457 518.093 311.32L353.832 374.339C353.832 374.339 343.718 342.582 351.799 303.237C355.157 286.988 362.598 271.863 373.419 259.289C384.24 246.714 398.085 237.104 413.648 231.364C393.91 229.309 378.193 218.014 368.754 199.119C367.666 199.528 366.54 199.828 365.392 200.014C360.735 200.785 355.957 199.813 351.97 197.284C347.983 194.756 345.066 190.848 343.775 186.305C342.485 181.763 342.912 176.905 344.974 172.657C347.036 168.41 350.59 165.071 354.956 163.277C348.88 148.142 339.917 112.229 363.449 93.2497C384.759 76.0447 411.057 80.7959 411.057 80.7959C411.057 80.7959 423.538 57.6831 444.937 55.1508C467.898 52.4012 463.784 68.872 463.784 68.872C463.784 68.872 477.675 65.4389 485.542 80.0927C492.61 93.3497 481.228 103.691 481.228 103.691C481.228 103.691 486.446 131.447 484.742 141.492C489.675 141.108 494.565 142.642 498.395 145.776C502.225 148.909 504.698 153.399 505.3 158.311C505.902 163.223 504.586 168.178 501.626 172.143C498.667 176.108 494.291 178.778 489.412 179.596C488.252 179.792 487.074 179.872 485.898 179.833C483.022 200.831 469.465 216.95 450.314 225.368C454.228 225.478 458.132 225.829 462.004 226.42L462.077 226.408C511.238 228.27 550.176 242.384 563.311 230.417C574.907 219.925 536.052 134.342 546.886 129.275C555.545 125.22 558.05 147.962 566.9 149.597C575.749 151.232 595.504 126.194 601.307 127.642C606.955 129.04 588.43 150.642 587.365 151.834C588.642 151.016 613.748 134.634 618.212 139.737C622.807 144.933 592.694 164.272 592.694 164.272C592.694 164.272 619.94 150.936 623.022 156.951C626.104 162.965 592.355 179.397 592.355 179.397Z" fill="#FFD400" stroke="black" stroke-width="7" stroke-linecap="round" stroke-linejoin="round"/>
<path d="M411.905 153.235C412.797 158.655 408.519 160.052 403.101 160.944C397.683 161.836 393.183 161.884 392.291 156.464C391.862 153.862 392.485 151.197 394.021 149.055C395.558 146.912 397.882 145.468 400.483 145.04C403.084 144.612 405.748 145.234 407.891 146.771C410.033 148.308 411.477 150.633 411.905 153.235Z" fill="#FFD400" stroke="black" stroke-width="7" stroke-linecap="round" stroke-linejoin="round"/>
<path d="M387.526 141.482C387.766 139.826 388.419 138.257 389.425 136.921C390.432 135.585 391.759 134.524 393.284 133.837C394.81 133.15 396.484 132.859 398.151 132.991C399.819 133.123 401.426 133.674 402.825 134.592" fill="#FFD400"/>
<path d="M387.526 141.482C387.766 139.826 388.419 138.257 389.425 136.921C390.432 135.585 391.759 134.524 393.284 133.837C394.81 133.15 396.484 132.859 398.151 132.991C399.819 133.123 401.426 133.674 402.825 134.592" stroke="black" stroke-width="7" stroke-linecap="round" stroke-linejoin="round"/>
<path d="M450.939 130.749C450.154 129.25 449.007 127.97 447.603 127.026C446.199 126.082 444.581 125.503 442.897 125.342C441.213 125.181 439.515 125.442 437.957 126.103C436.4 126.764 435.032 127.803 433.977 129.126" fill="#FFD400"/>
<path d="M450.939 130.749C450.154 129.25 449.007 127.97 447.603 127.026C446.199 126.082 444.581 125.503 442.897 125.342C441.213 125.181 439.515 125.442 437.957 126.103C436.4 126.764 435.032 127.803 433.977 129.126" stroke="black" stroke-width="7" stroke-linecap="round" stroke-linejoin="round"/>
<path d="M449.803 146.996C450.696 152.415 446.413 153.814 441 154.705C435.586 155.596 431.084 155.662 430.189 150.225C429.761 147.623 430.383 144.958 431.92 142.815C433.456 140.673 435.78 139.229 438.381 138.8C440.982 138.372 443.647 138.995 445.789 140.532C447.931 142.069 449.375 144.394 449.803 146.996Z" fill="#FFD400" stroke="black" stroke-width="7" stroke-linecap="round" stroke-linejoin="round"/>
<path d="M420.974 157.513L435.546 171.161L421.834 173.418" fill="#FFD400"/>
<path d="M420.974 157.513L435.546 171.161L421.834 173.418" stroke="black" stroke-width="7" stroke-linecap="round" stroke-linejoin="round"/>
<path d="M412.812 182.865C417.351 185.699 424.474 182.62 426.237 188.123C428.219 194.305 414.986 201.495 405.142 194.386C395.515 187.437 397.506 177.872 403.008 176.545C408.51 175.217 408.57 180.218 412.812 182.865Z" fill="#FFD400" stroke="black" stroke-width="7" stroke-linecap="round" stroke-linejoin="round"/>
<path d="M379.814 385.398L497.504 345.467" stroke="black" stroke-width="7" stroke-linecap="round" stroke-linejoin="round"/>
<path d="M408.85 393.701L471.897 378.283" stroke="black" stroke-width="7" stroke-linecap="round" stroke-linejoin="round"/>
<path d="M291.999 211.601L310.279 143.698" stroke="black" stroke-width="7" stroke-linecap="round" stroke-linejoin="round"/>
</g>
<defs>
<clipPath id="clip0">
<rect width="606.924" height="598.54" fill="white" transform="translate(0 98.5938) rotate(-9.34902)"/>
</clipPath>
</defs>
</svg>
